frontend/public/svg/health/first-aid.svg

<svg width="177" height="143" viewBox="0 0 177 143" fill="none" xmlns="http://www.w3.org/2000/svg">
<g clip-path="url(#clip0)">
<path d="M175.773 77.7597C175.851 64.1492 175.425 52.2452 174.474 41.3684C173.143 26.1413 164.659 17.7527 149.94 17.1036C143.69 16.8273 137.326 17.0379 131.172 17.2348C128.375 17.3267 125.483 17.4212 122.64 17.4684C121.727 17.4835 120.815 17.4776 120.032 17.4743H119.597C119.276 16.5555 118.968 15.6628 118.665 14.7833C117.9 12.5642 117.177 10.4692 116.374 8.39121C114.536 3.63605 111.119 1.30276 106.213 1.41827C101.602 1.53838 96.9115 1.6245 92.3749 1.70654C85.4387 1.83256 78.2636 1.96244 71.2126 2.22235C64.5954 2.46585 63.1953 4.28069 61.8197 10.3965L60.0477 18.2816H57.874C56.0841 18.2816 54.4229 18.2764 52.7643 18.2863C50.7515 18.2976 48.7358 18.3015 46.7169 18.298C41.8514 18.298 36.8192 18.298 31.8704 18.4654C25.8282 18.6876 19.8812 20.04 14.3371 22.4527C6.53653 25.8 2.63717 31.2994 2.41598 39.2582C2.26699 44.6572 2.05701 50.1474 1.85355 55.4565C1.67831 60.0745 1.49573 64.8495 1.35264 69.5489C1.27585 72.0719 1.27199 74.6368 1.26739 77.1178C1.25952 81.4785 1.25148 85.9869 0.850453 90.3712C-0.164901 101.463 0.0145252 110.37 1.4145 118.39C2.67992 125.636 6.07445 131.491 11.2339 135.324C15.9304 138.912 21.6327 140.939 27.5405 141.121C30.6266 141.209 33.7132 141.304 36.7997 141.406C44.467 141.652 52.3962 141.906 60.2 141.967C76.7396 142.099 92.2443 142.164 107.133 142.164C113.954 142.164 120.647 142.15 127.247 142.123C134.7 142.093 142.746 141.75 151.844 141.073C163.33 140.22 171.137 133.919 174.411 122.847C175.526 119.14 176.121 115.297 176.178 111.427C176.21 105.798 176.09 100.078 175.974 94.5475C175.862 89.0428 175.742 83.3517 175.773 77.7597ZM109.595 18.0512H68.1849C69.8415 10.7882 69.9511 10.7836 77.5462 10.5033C83.0805 10.2985 88.7184 10.2475 94.1706 10.1989C97.642 10.1674 101.232 10.1332 104.765 10.063C106.63 10.0275 107.408 10.6255 107.787 12.4442C108.132 13.912 108.581 15.3535 109.131 16.7576C109.282 17.1724 109.438 17.6023 109.595 18.0512ZM166.338 111.75C166.389 115.92 165.411 120.039 163.49 123.741C161.741 127.154 159.159 129.181 155.771 129.763C152.082 130.5 148.34 130.939 144.58 131.076C131.247 131.175 117.69 131.16 104.578 131.148C99.8414 131.142 95.1053 131.139 90.3685 131.137C85.5293 131.134 80.696 131.136 75.87 131.143C64.1741 131.151 52.0809 131.161 40.1894 131.096C35.725 131.063 31.2655 130.794 26.8296 130.289C18.59 129.362 12.7377 123.623 11.1749 114.937C9.4376 105.288 9.637 95.3909 9.82865 85.8208C9.86212 84.1505 9.89441 82.4814 9.91936 80.813C10.0624 70.771 10.4671 60.559 10.8577 50.6871C10.9566 48.1768 11.055 45.667 11.1525 43.1581C11.5155 33.6005 13.266 31.3677 22.1686 29.1033C27.6517 27.6877 33.2828 26.9265 38.945 26.8357C50.6934 26.6952 62.6388 26.7129 74.1943 26.732C83.6134 26.7451 93.3541 26.7622 102.937 26.6913C108.379 26.6513 113.904 26.4024 119.247 26.1662C123.5 25.9752 127.899 25.7777 132.223 25.6871C138.148 25.5624 144.276 25.433 150.283 26.0579C159.09 26.9715 163.147 31.0644 164.281 40.1822C164.975 45.1608 165.409 50.1722 165.581 55.196C165.843 68.6898 165.998 82.4125 166.149 95.6836C166.209 101.034 166.272 106.389 166.338 111.747V111.75Z" fill="black"/>
<path d="M120.147 65.5418L119.7 65.5505C119.056 65.5623 118.413 65.5741 117.769 65.6062L110.25 65.9895C105.695 66.2232 101.142 66.4526 96.588 66.6776C95.8122 66.715 95.0299 66.7065 94.1248 66.6973C93.8622 66.694 93.5918 66.6908 93.3083 66.6888L93.2144 62.9139C93.1311 59.6224 93.051 56.4411 92.9827 53.2605C92.9677 52.5615 92.9827 51.8356 93.0051 51.134C93.1022 49.5651 93.0274 47.9903 92.7812 46.4379C92.5732 45.6683 92.1945 44.9554 91.674 44.3514C91.1542 43.7474 90.5051 43.2675 89.7746 42.9474C89.3808 42.7952 88.9587 42.7299 88.5374 42.7558C88.1153 42.7816 87.7045 42.8979 87.3323 43.0971C86.8493 43.3881 86.4318 43.7766 86.1069 44.2376C85.7821 44.6986 85.5569 45.2221 85.4454 45.775C85.0063 47.448 84.7569 49.1654 84.7024 50.8944C84.6368 54.7392 84.6486 58.611 84.6591 62.7085C84.663 64.1354 84.6676 65.5963 84.6689 67.101L60.2479 66.3466C59.965 66.338 59.6762 66.3098 59.3868 66.2809C58.601 66.1495 57.7969 66.182 57.0242 66.376C56.1382 66.6645 54.7885 67.565 54.5607 68.663C54.5047 69.2603 54.5921 69.8628 54.8155 70.4201C55.0389 70.9773 55.3918 71.4735 55.8452 71.8666C56.8717 72.5722 58.0704 72.985 59.3134 73.0625C62.6791 73.4563 66.0736 73.7589 69.3992 73.9715C73.0865 74.2065 76.8106 74.3942 80.4113 74.5753C81.7134 74.641 83.0071 74.7059 84.2922 74.7716L84.2955 80.7449C84.3001 85.8092 84.304 90.7429 84.283 95.6766C84.2705 98.6111 84.7201 102.016 88.3326 102.302C88.4744 102.313 88.6135 102.317 88.7513 102.317C89.7778 102.339 90.7761 101.979 91.5532 101.309C92.7432 100.264 93.4107 98.5067 93.5341 96.0855C93.7592 91.6736 93.8222 87.1849 93.8819 82.8439C93.9062 81.0895 93.9305 79.3351 93.9659 77.5807C93.9804 76.8436 93.9771 76.1059 93.9732 75.3045V74.7407L94.5547 74.7066C95.3377 74.6607 96.0774 74.6173 96.7987 74.6141C98.6423 74.6042 100.487 74.6082 102.331 74.6141C106.153 74.6233 110.103 74.6278 113.991 74.5117C116.498 74.4008 118.986 74.0188 121.411 73.3729C123.825 72.773 125.061 70.9366 124.635 68.5817C124.068 65.4645 121.124 65.5287 120.147 65.5418Z" fill="black"/>
</g>
<defs>
<clipPath id="clip0">
<rect width="176.555" height="141.769" fill="white" transform="translate(0.0098877 0.856079)"/>
</clipPath>
</defs>
</svg>

<svg xmlns="http://www.w3.org/2000/svg" width="177" height="143" fill="none" viewBox="0 0 177 143"><g fill="#000" clip-path="url(#a)"><path d="M175.773 77.76c.078-13.61-.348-25.515-1.299-36.392-1.331-15.227-9.815-23.615-24.534-24.264-6.25-.277-12.614-.066-18.768.13a529 529 0 0 1-8.532.234c-.913.015-1.825.01-2.608.006h-.435a690 690 0 0 1-.932-2.69c-.765-2.22-1.488-4.315-2.291-6.393-1.838-4.755-5.255-7.088-10.161-6.973-4.611.12-9.301.207-13.838.289-6.936.126-14.111.255-21.162.515-6.618.244-8.018 2.059-9.393 8.174l-1.772 7.886h-2.174c-1.79 0-3.451-.006-5.11.004q-3.019.017-6.047.012c-4.866 0-9.898 0-14.847.167a48.4 48.4 0 0 0-17.533 3.988c-7.8 3.347-11.7 8.846-11.921 16.805-.149 5.4-.359 10.89-.562 16.198-.176 4.618-.358 9.394-.501 14.093-.077 2.523-.081 5.088-.086 7.569-.007 4.36-.016 8.869-.417 13.253-1.015 11.092-.835 19.999.565 28.019 1.265 7.246 4.66 13.101 9.819 16.934a28.3 28.3 0 0 0 16.307 5.797q4.629.132 9.259.285c7.667.246 15.596.5 23.4.561 16.54.132 32.044.197 46.933.197 6.821 0 13.514-.014 20.114-.041 7.453-.03 15.499-.373 24.597-1.05 11.486-.853 19.293-7.154 22.567-18.226a41.8 41.8 0 0 0 1.767-11.42c.032-5.629-.088-11.349-.204-16.88-.112-5.504-.232-11.195-.201-16.787m-66.178-59.71h-41.41c1.656-7.263 1.766-7.267 9.361-7.548 5.534-.204 11.172-.255 16.625-.304 3.471-.032 7.061-.066 10.594-.136 1.865-.036 2.643.563 3.022 2.381a32 32 0 0 0 1.344 4.314q.228.62.464 1.293m56.743 93.699a25.36 25.36 0 0 1-2.848 11.991c-1.749 3.413-4.331 5.44-7.719 6.022a70 70 0 0 1-11.191 1.313c-13.333.099-26.89.084-40.002.072q-7.105-.008-14.21-.011-7.259-.005-14.498.006c-11.696.008-23.79.018-35.68-.047a126 126 0 0 1-13.36-.807c-8.24-.927-14.092-6.666-15.655-15.352-1.737-9.649-1.538-19.546-1.346-29.116q.051-2.505.09-5.008c.143-10.042.548-20.254.939-30.126l.294-7.529c.364-9.558 2.114-11.79 11.017-14.055a71.7 71.7 0 0 1 16.776-2.267c11.748-.14 23.694-.123 35.25-.104 9.418.013 19.16.03 28.742-.04 5.442-.04 10.967-.29 16.31-.526 4.253-.19 8.652-.388 12.976-.479 5.925-.125 12.053-.254 18.06.37 8.807.915 12.864 5.007 13.998 14.125a145 145 0 0 1 1.3 15.014c.262 13.494.417 27.216.568 40.488q.09 8.025.189 16.063z"/><path d="m120.147 65.542-.447.008c-.644.012-1.287.024-1.931.056l-7.519.384q-6.832.35-13.662.688c-.776.037-1.558.029-2.463.02l-.817-.01-.094-3.774a2519 2519 0 0 1-.231-9.654c-.015-.698 0-1.424.022-2.126a21.5 21.5 0 0 0-.224-4.696 5.33 5.33 0 0 0-3.006-3.49 2.93 2.93 0 0 0-2.443.15 4.07 4.07 0 0 0-1.887 2.677 23 23 0 0 0-.743 5.12c-.065 3.844-.053 7.716-.043 11.813.004 1.427.009 2.888.01 4.393l-24.421-.754a13 13 0 0 1-.861-.066 5.8 5.8 0 0 0-2.363.095c-.886.288-2.236 1.189-2.463 2.287a3.78 3.78 0 0 0 1.284 3.204 6.9 6.9 0 0 0 3.468 1.195c3.366.394 6.76.697 10.086.91 3.688.235 7.412.422 11.012.603q1.953.098 3.881.197l.004 5.973c.004 5.064.008 9.998-.013 14.932-.013 2.934.437 6.339 4.05 6.625q.211.016.418.015a4.16 4.16 0 0 0 2.802-1.008c1.19-1.045 1.858-2.802 1.981-5.224.225-4.411.288-8.9.348-13.241.024-1.754.048-3.509.084-5.263.014-.737.011-1.475.007-2.276v-.564l.582-.034c.783-.046 1.522-.09 2.244-.093 1.843-.01 3.688-.006 5.532 0 3.822.01 7.772.014 11.66-.102a34.8 34.8 0 0 0 7.42-1.14c2.414-.599 3.65-2.435 3.224-4.79-.567-3.117-3.511-3.053-4.488-3.04"/></g><defs><clipPath id="a"><path fill="#fff" d="M.01.856h176.555v141.77H.01z"/></clipPath></defs></svg>
